X:1
T:Clignancourt, 87.87 D
T:Clignancourt, 87.87 D
T:Charles Edward Pollock, 1878
T:Public Domain Courtesy of the Cyber Hymnal™
C:Charles Edward Pollock, 1878
Z:Public Domain
Z:Courtesy of the Cyber Hymnal™
%%score ( 1 2 ) 3
L:1/8
Q:1/4=96
M:3/4
K:Eb
V:1 treble 
V:2 treble 
V:3 bass 
V:1
 E[EF] | [EG]2 [DF]2 [EG][Ac] | [GB]2 [EG]2 [GB][Ac] | [GB]2 [EG]2 [EG]E | [DF]4 E[EF] | %5
 [EG]2 [DF]2 [EG][Ac] | [GB]2 [EG]2 E[EF] | [EG][FA] [EG]2 [DF]2 | E4 [GB][GB] | %9
 [Ge]2 [Ge]2 [Ac][Ae] | [GB]2 [GB]2 [Ac][GB] | [GB]2 [EG]2 [EG]E | [DF]4 E[EF] | %13
 [EG]2 [DF]2 [EG][Ac] | [GB]2 [EG]2 [GB][Ac] | [GB][FA] [EG]2 [DF]2 | E4 |] %17
V:2
 E x | x6 | x6 | x5 E | x4 E x | x6 | x4 E x | x6 | E4 x2 | x6 | x6 | x6 | x4 E x | x6 | x6 | x6 | %16
 E4 |] %17
V:3
 [E,G,][E,A,] | [E,B,]2 [B,,B,]2 [E,B,][E,E] | [E,E]2 [E,B,]2 [E,E][E,E] | %3
 [E,E]2 [E,B,]2 [E,B,][E,G,] | [B,,B,]4 [E,G,][E,A,] | [E,B,]2 [B,,B,]2 [E,B,][E,E] | %6
 [E,E]2 [E,B,]2 [E,G,][E,A,] | [E,B,][C,C] [B,,B,]2 [B,,A,]2 | [E,G,]4 [E,B,][E,B,] | %9
 [E,B,]2 [E,E]2 [A,E][A,C] | [E,E]2 [E,E]2 [E,E][E,E] | [E,E]2 [E,B,]2 [E,B,][E,G,] | %12
 [B,,B,]4 [E,G,][E,A,] | [E,B,]2 [B,,B,]2 [E,B,][E,E] | [E,E]2 [E,B,]2 [E,E][E,E] | %15
 [E,E][A,,C] [B,,B,]2 [B,,A,]2 | [E,G,]4 |] %17

